X: 22224
T: La Cosa Mulligan
R: reel
M: 4/4
K: Dmajor
|:D2 FD EDFE|DEFD EA,A,2|CEE2 GABd|ceAc dBAF|
D2 FD EDFE|DEFD EFG2|Acc2 dBAG|FAEG FDD2:|
|:fddc d2de|fddf edcB|A2 cA BAcB|ABcA Bcde|
fddc d2de|fddf edcB|Aece gecd|eddc d4:|
A3A BAAG|FAAF GFED|E3F GFED|Egec dBAF|
D2 FD EDFE|DEFD EFG2|Acc2 dBAG|FAEG FDD2||

